Numix-Circle/48x48/apps/vnclicensewiz.svg

<svg xmlns="http://www.w3.org/2000/svg" width="48" viewBox="0 0 13.546667 13.546667" height="48">
 <defs>
  <linearGradient id="linearGradient4205" x1="1" x2="47" gradientUnits="userSpaceOnUse">
   <stop style="stop-color:#f9e148;stop-opacity:1"/>
   <stop offset="1" style="stop-color:#fae45a;stop-opacity:1"/>
  </linearGradient>
 </defs>
 <g>
  <path d="m 25 2 c -12.703 0 -23 10.297 -23 23 0 6.367 2.601 12.12 6.781 16.281 4.085 3.712 9.514 5.969 15.469 5.969 c 12.703 0 23 -10.297 23 -23 0 -5.954 -2.256 -11.384 -5.969 -15.469 c -4.165 -4.181 -9.914 -6.781 -16.281 -6.781 z m 16.281 6.781 c 3.854 4.113 6.219 9.637 6.219 15.719 c 0 12.703 -10.297 23 -23 23 c -6.081 0 -11.606 -2.364 -15.719 -6.219 4.16 4.144 9.883 6.719 16.219 6.719 12.703 0 23 -10.297 23 -23 0 -6.335 -2.575 -12.06 -6.719 -16.219 z" transform="scale(0.28222223,0.28222223)" style="fill:#000;opacity:0.05;fill-opacity:1;stroke:none"/>
  <path d="m 41.28 8.781 c 3.712 4.085 5.969 9.514 5.969 15.469 c 0 12.703 -10.297 23 -23 23 -5.954 0 -11.384 -2.256 -15.469 -5.969 c 4.113 3.854 9.637 6.219 15.719 6.219 c 12.703 0 23 -10.297 23 -23 0 -6.081 -2.364 -11.606 -6.219 -15.719 z" transform="scale(0.28222223,0.28222223)" style="fill:#000;opacity:0.1;fill-opacity:1;stroke:none"/>
  <path transform="matrix(4.3274074,0,0,3.2455556,117.19278,-35.348334)" d="m -24 13 a 1.5 2 0 1 1 -3 0 1.5 2 0 1 1 3 0 z" style="fill:#000;opacity:0.2;fill-opacity:1;stroke:none"/>
 </g>
 <g>
  <g transform="scale(0.28222222,0.28222222)" style="fill:url(#linearGradient4205);fill-opacity:1">
   <path d="M 24,1 C 36.703,1 47,11.297 47,24 47,36.703 36.703,47 24,47 11.297,47 1,36.703 1,24 1,11.297 11.297,1 24,1 Z"/>
  </g>
  <path d="m 40.03 7.531 c 3.712 4.085 5.969 9.514 5.969 15.469 c 0 12.703 -10.297 23 -23 23 c -5.954 0 -11.384 -2.256 -15.469 -5.969 c 4.178 4.291 10.01 6.969 16.469 6.969 c 12.703 0 23 -10.297 23 -23 c 0 -6.462 -2.677 -12.291 -6.969 -16.469 z" transform="scale(0.28222223,0.28222223)" style="fill:#000;opacity:0.1;fill-opacity:1;stroke:none"/>
 </g>
 <g>
  <g transform="translate(0.28222224,0.2822227)" style="fill:#000;opacity:0.12;fill-opacity:1">
   <path d="m 10.04 7.752 c -0.456 -0.464 -1.237 -0.55 -1.758 -0.198 -0.521 0.351 -0.7 0.991 -0.427 1.579 l -1.188 1.189 c -0.396 0.396 -0.374 0.822 -0.198 0.991 0.176 0.169 0.594 0.198 0.99 -0.198 l 0.594 0.198 -0.396 -0.793 0.99 0.198 -0.198 -0.594 0.198 -0.198 c 0.583 0.283 1.205 0.112 1.566 -0.402 0.361 -0.515 0.283 -1.307 -0.173 -1.771 m -0.588 0.588 c 0.116 0.116 0.116 0.293 0 0.409 -0.116 0.116 -0.293 0.116 -0.409 0 -0.116 -0.116 -0.116 -0.293 0 -0.409 0.116 -0.116 0.293 -0.116 0.409 0 z m -0.198 0.198 c 0.004 0.004 -0.017 0.004 -0.012 0 0.004 -0.004 0.004 0.017 0 0.012 -0.004 -0.004 0.017 -0.004 0.012 0 -0.004 0.004 -0.004 -0.017 0 -0.012 z" style="color:#000"/>
   <path d="m 2.54 3.951 1.055 0 1.444 4.425 1.421 -4.425 1.066 0 -1.981 5.825 c -0.08 0.238 -0.259 0.383 -0.503 0.384 -0.246 0.002 -0.43 -0.144 -0.511 -0.384 l -1.991 -5.825" style="stroke:none;fill-rule:evenodd"/>
   <path d="m 7.62 6.773 0 -1.584 c 0 -0.695 0.692 -1.247 1.43 -1.238 0.728 0.011 1.393 0.551 1.393 1.238 l 0 1.584 -0.689 0 0 -1.482 c 0 -0.363 -0.333 -0.626 -0.704 -0.631 -0.375 -0.006 -0.726 0.26 -0.726 0.631 l 0 1.482 -0.704 0" style="stroke:none;fill-rule:evenodd"/>
  </g>
  <g>
   <path d="m 10.04 7.752 c -0.456 -0.464 -1.237 -0.55 -1.758 -0.198 -0.521 0.351 -0.7 0.991 -0.427 1.579 l -1.188 1.189 c -0.396 0.396 -0.374 0.822 -0.198 0.991 0.176 0.169 0.594 0.198 0.99 -0.198 l 0.594 0.198 -0.396 -0.793 0.99 0.198 -0.198 -0.594 0.198 -0.198 c 0.583 0.283 1.205 0.112 1.566 -0.402 0.361 -0.515 0.283 -1.307 -0.173 -1.771 m -0.588 0.588 c 0.116 0.116 0.116 0.293 0 0.409 -0.116 0.116 -0.293 0.116 -0.409 0 -0.116 -0.116 -0.116 -0.293 0 -0.409 0.116 -0.116 0.293 -0.116 0.409 0 z m -0.198 0.198 c 0.004 0.004 -0.017 0.004 -0.012 0 0.004 -0.004 0.004 0.017 0 0.012 -0.004 -0.004 0.017 -0.004 0.012 0 -0.004 0.004 -0.004 -0.017 0 -0.012 z" style="fill:#4747d8;fill-opacity:1;color:#000"/>
   <path d="m 2.54 3.951 1.055 0 1.444 4.425 1.421 -4.425 1.066 0 -1.981 5.825 c -0.08 0.238 -0.259 0.383 -0.503 0.384 -0.246 0.002 -0.43 -0.144 -0.511 -0.384 l -1.991 -5.825" style="fill:#f13e3e;fill-opacity:1;stroke:none;fill-rule:evenodd"/>
   <path d="m 7.62 6.773 0 -1.584 c 0 -0.695 0.692 -1.247 1.43 -1.238 0.728 0.011 1.393 0.551 1.393 1.238 l 0 1.584 -0.689 0 0 -1.482 c 0 -0.363 -0.333 -0.626 -0.704 -0.631 -0.375 -0.006 -0.726 0.26 -0.726 0.631 l 0 1.482 -0.704 0" style="fill:#49d74a;fill-opacity:1;stroke:none;fill-rule:evenodd"/>
  </g>
 </g>
</svg>

<svg xmlns="http://www.w3.org/2000/svg" viewBox="0 0 48 48">
 <defs>
  <linearGradient id="linearGradient3764" x1="1" x2="47" gradientUnits="userSpaceOnUse" gradientTransform="matrix(0,-1,1,0,-1.5e-6,47.999998)">
   <stop style="stop-color:#f8ee4c;stop-opacity:1"/>
   <stop offset="1" style="stop-color:#f9f05f;stop-opacity:1"/>
  </linearGradient>
 </defs>
 <g>
  <path d="m 36.31 5 c 5.859 4.062 9.688 10.831 9.688 18.5 c 0 12.426 -10.07 22.5 -22.5 22.5 c -7.669 0 -14.438 -3.828 -18.5 -9.688 c 1.037 1.822 2.306 3.499 3.781 4.969 c 4.085 3.712 9.514 5.969 15.469 5.969 c 12.703 0 23 -10.298 23 -23 c 0 -5.954 -2.256 -11.384 -5.969 -15.469 c -1.469 -1.475 -3.147 -2.744 -4.969 -3.781 z m 4.969 3.781 c 3.854 4.113 6.219 9.637 6.219 15.719 c 0 12.703 -10.297 23 -23 23 c -6.081 0 -11.606 -2.364 -15.719 -6.219 c 4.16 4.144 9.883 6.719 16.219 6.719 c 12.703 0 23 -10.298 23 -23 c 0 -6.335 -2.575 -12.06 -6.719 -16.219 z" style="opacity:0.05"/>
  <path d="m 41.28 8.781 c 3.712 4.085 5.969 9.514 5.969 15.469 c 0 12.703 -10.297 23 -23 23 c -5.954 0 -11.384 -2.256 -15.469 -5.969 c 4.113 3.854 9.637 6.219 15.719 6.219 c 12.703 0 23 -10.298 23 -23 c 0 -6.081 -2.364 -11.606 -6.219 -15.719 z" style="opacity:0.1"/>
  <path d="m 31.25 2.375 c 8.615 3.154 14.75 11.417 14.75 21.13 c 0 12.426 -10.07 22.5 -22.5 22.5 c -9.708 0 -17.971 -6.135 -21.12 -14.75 a 23 23 0 0 0 44.875 -7 a 23 23 0 0 0 -16 -21.875 z" style="opacity:0.2"/>
 </g>
 <g>
  <path d="m 24 1 c 12.703 0 23 10.297 23 23 c 0 12.703 -10.297 23 -23 23 -12.703 0 -23 -10.297 -23 -23 0 -12.703 10.297 -23 23 -23 z" style="fill:url(#linearGradient3764);fill-opacity:1"/>
 </g>
 <g>
  <path d="m 40.03 7.531 c 3.712 4.084 5.969 9.514 5.969 15.469 0 12.703 -10.297 23 -23 23 c -5.954 0 -11.384 -2.256 -15.469 -5.969 4.178 4.291 10.01 6.969 16.469 6.969 c 12.703 0 23 -10.298 23 -23 0 -6.462 -2.677 -12.291 -6.969 -16.469 z" style="opacity:0.1"/>
 </g>
 <g transform="matrix(3.543307,0,0,3.543307,2.2e-7,-1.0026248)">
  <g transform="translate(0.28222224,0.2822227)" style="fill:#000;opacity:0.12;fill-opacity:1">
   <path d="M 10.04,7.752 C 9.584,7.288 8.803,7.202 8.282,7.554 7.761,7.905 7.582,8.545 7.855,9.133 l -1.188,1.189 c -0.396,0.396 -0.374,0.822 -0.198,0.991 0.176,0.169 0.594,0.198 0.99,-0.198 L 8.053,11.313 7.657,10.52 8.647,10.718 8.449,10.124 8.647,9.926 C 9.23,10.209 9.852,10.038 10.213,9.524 10.574,9.009 10.496,8.217 10.04,7.753 M 9.452,8.341 c 0.116,0.116 0.116,0.293 0,0.409 -0.116,0.116 -0.293,0.116 -0.409,0 -0.116,-0.116 -0.116,-0.293 0,-0.409 0.116,-0.116 0.293,-0.116 0.409,0 z M 9.254,8.539 c 0.004,0.004 -0.017,0.004 -0.012,0 0.004,-0.004 0.004,0.017 0,0.012 -0.004,-0.004 0.017,-0.004 0.012,0 -0.004,0.004 -0.004,-0.017 0,-0.012 z" style="color:#000"/>
   <path d="m 2.54,3.951 1.055,0 1.444,4.425 1.421,-4.425 1.066,0 -1.981,5.825 C 5.465,10.014 5.286,10.159 5.042,10.16 4.796,10.162 4.612,10.016 4.531,9.776 L 2.54,3.951" style="stroke:none;fill-rule:evenodd"/>
   <path d="m 7.62,6.773 0,-1.584 c 0,-0.695 0.692,-1.247 1.43,-1.238 0.728,0.011 1.393,0.551 1.393,1.238 l 0,1.584 -0.689,0 0,-1.482 C 9.754,4.928 9.421,4.665 9.05,4.66 8.675,4.654 8.324,4.92 8.324,5.291 l 0,1.482 -0.704,0" style="stroke:none;fill-rule:evenodd"/>
  </g>
  <g>
   <path d="M 10.04,7.752 C 9.584,7.288 8.803,7.202 8.282,7.554 7.761,7.905 7.582,8.545 7.855,9.133 l -1.188,1.189 c -0.396,0.396 -0.374,0.822 -0.198,0.991 0.176,0.169 0.594,0.198 0.99,-0.198 L 8.053,11.313 7.657,10.52 8.647,10.718 8.449,10.124 8.647,9.926 C 9.23,10.209 9.852,10.038 10.213,9.524 10.574,9.009 10.496,8.217 10.04,7.753 M 9.452,8.341 c 0.116,0.116 0.116,0.293 0,0.409 -0.116,0.116 -0.293,0.116 -0.409,0 -0.116,-0.116 -0.116,-0.293 0,-0.409 0.116,-0.116 0.293,-0.116 0.409,0 z M 9.254,8.539 c 0.004,0.004 -0.017,0.004 -0.012,0 0.004,-0.004 0.004,0.017 0,0.012 -0.004,-0.004 0.017,-0.004 0.012,0 -0.004,0.004 -0.004,-0.017 0,-0.012 z" style="fill:#5b5bd1;fill-opacity:1;color:#000"/>
   <path d="m 2.54,3.951 1.055,0 1.444,4.425 1.421,-4.425 1.066,0 -1.981,5.825 C 5.465,10.014 5.286,10.159 5.042,10.16 4.796,10.162 4.612,10.016 4.531,9.776 L 2.54,3.951" style="fill:#e94646;fill-opacity:1;stroke:none;fill-rule:evenodd"/>
   <path d="m 7.62,6.773 0,-1.584 c 0,-0.695 0.692,-1.247 1.43,-1.238 0.728,0.011 1.393,0.551 1.393,1.238 l 0,1.584 -0.689,0 0,-1.482 C 9.754,4.928 9.421,4.665 9.05,4.66 8.675,4.654 8.324,4.92 8.324,5.291 l 0,1.482 -0.704,0" style="fill:#45c546;fill-opacity:1;stroke:none;fill-rule:evenodd"/>
  </g>
 </g>
</svg>
